dist/img/sprites/infinity.svg

<svg width="24" height="13" viewBox="0 0 24 13" fill="none" xmlns="http://www.w3.org/2000/svg">
<path d="M24 6.50989C24 7.67073 23.7432 8.74581 23.2296 9.73516C22.7292 10.7245 22.0247 11.516 21.116 12.1096C20.2074 12.7032 19.1539 13 17.9556 13C16.7704 13 15.6774 12.6834 14.6765 12.0502C13.6889 11.4039 12.7737 10.4079 11.9309 9.0624C11.1407 10.2628 10.2519 11.206 9.2642 11.8919C8.27654 12.5647 7.22963 12.9011 6.12346 12.9011C4.9251 12.9011 3.86502 12.6306 2.94321 12.0898C2.0214 11.549 1.29712 10.7971 0.77037 9.83409C0.25679 8.85794 0 7.72349 0 6.43075C0 5.23034 0.25679 4.14866 0.77037 3.18569C1.28395 2.20954 1.99506 1.43785 2.9037 0.870624C3.82551 0.290208 4.89877 0 6.12346 0C7.22963 0 8.27654 0.303399 9.2642 0.910198C10.265 1.517 11.1802 2.51294 12.0099 3.89802C12.7868 2.68442 13.6626 1.74125 14.637 1.06849C15.6247 0.395738 16.7309 0.0593607 17.9556 0.0593607C19.7597 0.0593607 21.2148 0.652968 22.321 1.84018C23.4403 3.0274 24 4.58397 24 6.50989ZM10.2321 6.43075C9.63951 5.30949 9.02716 4.49163 8.39506 3.97717C7.77613 3.44952 7.06502 3.18569 6.26173 3.18569C5.33992 3.18569 4.60905 3.50228 4.06914 4.13546C3.52922 4.76865 3.25926 5.54033 3.25926 6.45053C3.25926 7.32116 3.51605 8.07306 4.02963 8.70624C4.54321 9.33942 5.30041 9.65601 6.30123 9.65601C7.03868 9.65601 7.72346 9.39878 8.35556 8.88432C9.00082 8.35667 9.62634 7.53881 10.2321 6.43075ZM20.7407 6.49011C20.7407 5.56672 20.4642 4.80162 19.9111 4.19482C19.358 3.58803 18.6272 3.28463 17.7185 3.28463C16.9942 3.28463 16.3095 3.54186 15.6642 4.05632C15.0321 4.57078 14.4 5.38204 13.7679 6.49011C14.3473 7.5586 14.9597 8.36986 15.6049 8.9239C16.2634 9.47793 16.9745 9.75495 17.7383 9.75495C18.6469 9.75495 19.3712 9.44495 19.9111 8.82496C20.4642 8.19178 20.7407 7.4135 20.7407 6.49011Z" fill="black"/>
</svg>

<svg width="24" height="13" viewBox="0 0 24 13" fill="none" xmlns="http://www.w3.org/2000/svg"><path d="M24 6.51c0 1.16-.257 2.236-.77 3.225a6.031 6.031 0 01-2.114 2.375c-.909.593-1.962.89-3.16.89a6.015 6.015 0 01-3.28-.95c-.987-.646-1.902-1.642-2.745-2.988-.79 1.2-1.68 2.144-2.667 2.83-.987.673-2.034 1.01-3.14 1.01-1.199 0-2.259-.271-3.18-.812A5.77 5.77 0 01.77 9.834C.257 8.858 0 7.724 0 6.431c0-1.2.257-2.282.77-3.245A5.926 5.926 0 012.904.87C3.826.29 4.899 0 6.124 0c1.106 0 2.153.303 3.14.91 1.001.607 1.916 1.603 2.746 2.988.777-1.214 1.653-2.157 2.627-2.83A5.761 5.761 0 0117.956.06c1.804 0 3.259.594 4.365 1.781C23.441 3.027 24 4.584 24 6.51zm-13.768-.08C9.64 5.31 9.027 4.493 8.395 3.978a3.193 3.193 0 00-2.133-.791c-.922 0-1.653.316-2.193.95-.54.633-.81 1.404-.81 2.315 0 .87.257 1.622.77 2.255.514.633 1.271.95 2.272.95.738 0 1.422-.257 2.055-.772.645-.527 1.27-1.345 1.876-2.453zm10.509.06c0-.923-.277-1.688-.83-2.295-.553-.607-1.284-.91-2.193-.91-.724 0-1.409.257-2.054.771-.632.515-1.264 1.326-1.896 2.434.58 1.069 1.192 1.88 1.837 2.434.658.554 1.37.83 2.133.83.909 0 1.633-.309 2.173-.929.553-.633.83-1.411.83-2.335z" fill="#000"/></svg>
